!!!OTL: DIE HEILGEN DREI KOENIGE
!!!ARE: Europa, Mitteleuropa, Deutschland
!!!SCT: B0684
!!!YEM: Copyright 1995, estate of Helmut Schaffrath.
**kern
*ICvox
*Ivox
*M2/4
*k[f#c#g#]
*A:
{8e
=1
8.a
16g#
8a
8b
=2
4cc#
8a}
{8cc#
=3
4b
4b
=4
4b
8r}
{8b
=5
8.cc#
16b
8cc#
8dd
=6
8.ee
16ff#
8ee}
{8dd
=7
4cc#
8b
8b
=8
4a
8r}
{8cc#
=9
4b
4e
=10
4e
8r}
{8cc#
=11
4b
4e
=12
4e
8r}
{8b
=13
8.cc#
16b
8cc#
8ff#
=14
4ee}
{8.a
16b
=15
4cc#
8b
8b
=16
4a
8r}
{8cc#
=17
4b
4e
=18
4e
8r}
{8cc#
=19
4b
4e
=20
4e
8r}
{8b
=21
8.cc#
16b
8cc#
8ff#
=22
4ee}
{8.a
16b
=23
4cc#
8b
8b
=24
4a
8r}
==
!!!AGN: Scherz - Lied
!!!ONB: ESAC (Essen Associative Code) Database: BOEHME
!!!AMT: simple duple
!!!AIN: vox
!!!EED: Helmut Schaffrath
!!!EEV: 1.0
*-
